X:1
T:Only Once You Pass This Way
T:Only Once You Pass This Way
T:John Robson Sweney
T:John Oatman, Jr., 1898
T:Public Domain Courtesy of the Cyber Hymnal™
T:Public Domain Courtesy of the Cyber Hymnal™
C:John Robson Sweney
Z:Public Domain
Z:Courtesy of the Cyber Hymnal™
%%score ( 1 2 ) ( 3 4 )
L:1/8
Q:1/4=105
M:4/4
K:Ab
V:1 treble 
V:2 treble 
V:3 bass 
V:4 bass 
V:1
 [Ec][DB] | [CA]2 [CA][DF] [DF][CE][A,C][B,D] | [CE]6 [CE][EA] | [EA]3 [EG] [EG]2 (AB) | %4
w: 1.~Do your|best while life’s pil- grim way you|tread, Scat- tering|sun- shine while you *|
w: 2.~Ev- ’ry|day poor and need- y you will|find, Filled with|sor- row and dis- *|
w: 3.~Tell the|world that the Sav- ior died for|all, Bid them|ev- er watch and *|
w: 4.~Be a|brave, ear- nest sol- dier in the|strife, Then when|comes the close of *|
 [Ec]6 [Ec][Ed] | [Ee]2 [Ee][Ed] [Ec][DB][CA][EG] | [DF]6 [FA][DF] | [CE]3 [Ec] [Ec]2 [DB]2 | %8
w: may; Bear in|mind, while the pre- cious seed you|spread, On- ly|once you pass this|
w: may; Do your|best some poor, brok- en hearts to|bind, On- ly|once you pass this|
w: pray; Lift your|voice, shout a- loud the Gos- pel|call, On- ly|once you pass this|
w: day, May the|world be the bet- ter for your|life, On- ly|once you pass this|
 [CA]6 ||"^Refrain" [CA][EG] | [DF]4- [DF][Fd][Fd][DF] | [CE]6 [Ec][Ee] | d4- [Gd][Gd][Gd][Gc] | %13
w: way.|||||
w: way.|On- ly|once * you pass this|way, On- ly|once you pass this way;|
w: way.|||||
w: way.|||||
 !fermata![GB]6 E[Ec] | [DB] [CA]3- [CA]2 [Ec][_Ge] | [Fd]6 [DF][Fd] | [Ec]3 [Ec] [Ec]2 [DB]2 | %17
w: ||||
w: * Be a|bless- ing * while you|may, On- ly|once you pass this|
w: ||||
w: ||||
 [CA]6 |] %18
w: |
w: way.|
w: |
w: |
V:2
 x2 | x8 | x8 | x6 E2 | x8 | x8 | x8 | x8 | x6 || x2 | x8 | x8 | G2 G G x4 | x6 E x | x8 | x8 | %16
 x8 | x6 |] %18
V:3
 [A,,A,][A,,A,] | [A,,E,]2 [A,,E,][A,,A,] [A,,A,][A,,A,][A,,E,][A,,E,] | [A,,A,]6 [A,,A,][A,,C] | %3
w: ~ ~|~ ~ ~ ~ ~ ~ ~|~ ~ ~|
 [E,C]3 [E,B,] B,2 ([C,A,][E,G,]) | A,6 A,[A,B,] | [A,C]2 [A,C][A,B,] [A,,A,][A,,A,][A,,A,][C,A,] | %6
w: ~ ~ ~ ~ *|~ ~ ~|~ ~ ~ ~ ~ ~ ~|
 [D,A,]6 [D,A,][D,A,] | [E,A,]3 [E,A,] [E,A,]2 [E,G,]2 | [A,,E,A,]6 || z2 | %10
w: ~ ~ ~|~ ~ ~ ~|~||
 [D,A,]2 [D,A,]2 [D,A,]3 [D,A,] | [A,,A,]2 [A,,A,]2 [A,,A,]2 A,[A,C] | %12
w: On- ly once you|pass this way ~ ~|
 [E,B,]2 [E,B,][E,B,] [E,B,][E,B,][E,B,][E,E] | [E,E]E,[E,G,][E,B,] !fermata![E,D]2 z2 | %14
w: ~ On- ly once you pass this|way; ~ ~ ~ ~|
 z2 [A,,E,][A,,E,] [A,,E,][A,,E,][A,,A,][C,A,] | [D,A,][D,A,][D,A,][D,A,] [D,A,]2 [D,A,][D,A,] | %16
w: Be a bless- ing, be a|bless- ing while you may * *|
 [E,A,]3 [E,A,] [E,A,]2 [E,G,]2 | [A,,E,A,]6 |] %18
w: ||
V:4
 x2 | x8 | x8 | x4 (E,D,) x2 | A,6 A, x | x8 | x8 | x8 | x6 || x2 | x8 | x6 A, x | x8 | x E, x6 | %14
 x8 | x8 | x8 | x6 |] %18

